!!!COM: Vivaldi, Antonio
**kern	**dynam	**kern	**dynam	**kern	**dynam	**kern	**dynam
*staff5	*staff5	*staff3	*staff3	*staff2	*staff2	*staff1	*staff1
*clefF4	*clefF4	*clefF4	*clefF4	*clefG2	*clefG2	*clefG2	*clefG2
*k[b-]	*k[b-]	*k[b-]	*k[b-]	*k[b-]	*k[b-]	*k[b-]	*k[b-]
*M4/4	*M4/4	*M4/4	*M4/4	*M4/4	*M4/4	*M4/4	*M4/4
8r	.	8r	.	8r	.	8dd\	pp
=1	=1	=1	=1	=1	=1	=1	=1
8r	.	8r	.	4r	.	8gg\L	.
8G\	pp	8G\	p	.	.	8dd\	.
4F#\	.	4F#\	.	8r	.	8aa\	.
.	.	.	.	8dd\	pp	8dd\J	.
8r	.	8r	.	8gg\L	.	4bb-\	.
8G\	.	8G\	.	8dd\	.	.	.
4F#\	.	4F#\	.	8aa\	.	8r	.
.	.	.	.	8dd\J	.	8aa\	.
=2	=2	=2	=2	=2	=2	=2	=2
8r	.	8r	.	4bb-\	.	8gg\L	.
8G\	.	8G\	.	.	.	8dd\	.
4F#\	.	4F#\	.	8r	.	8aa\	.
.	.	.	.	8aa\	.	8dd\J	.
8G\L	.	8G\L	.	8gg\L	.	4.bb-\	.
8Fn\	.	8Fn\	.	8dd\J	.	.	.
8E-\	.	8E-\	.	[4ccc\	.	.	.
8D\J	.	8D\J	.	.	.	8gg\	.
=3	=3	=3	=3	=3	=3	=3	=3
8C\L	.	8C\L	.	4ccc\]	.	(8aa-\L	.
8D\	.	8D\	.	.	.	8ff#\J)	.
8E-\	.	8E-\	.	(8bb-\L	.	2gg\	.
8C\J	.	8C\J	.	8aa\J)	.	.	.
8D/L	.	8D/L	.	4bb-\	.	.	.
8C/	.	8C/	.	.	.	.	.
8D/	.	8D/	.	4aa\	.	4ff#\	.
8DD/J	.	8DD/J	.	.	.	.	.
=4	=4	=4	=4	=4	=4	=4	=4
4GG/	f	4GG/	f	16gg\LL	f	4gg\	f
.	.	.	.	16dd\	.	.	.
.	.	.	.	16b-\	.	.	.
.	.	.	.	16gg\JJ	.	.	.
4BB-/	.	4BB-/	.	16gg\LL	.	4r	.
.	.	.	.	16dd\	.	.	.
.	.	.	.	16b-\	.	.	.
.	.	.	.	16gg\JJ	.	.	.
4C/	.	4C/	.	2ee-\	.	16gg\LL	.
.	.	.	.	.	.	16ee-\	.
.	.	.	.	.	.	16cc\	.
.	.	.	.	.	.	16gg\JJ	.
4c\	.	4c\	.	.	.	16gg\LL	.
.	.	.	.	.	.	16ee-\	.
.	.	.	.	.	.	16cc\	.
.	.	.	.	.	.	16gg\JJ	.
=5	=5	=5	=5	=5	=5	=5	=5
4F\	.	4F\	.	16ff\LL	.	2aa\	.
.	.	.	.	16cc\	.	.	.
.	.	.	.	16a\	.	.	.
.	.	.	.	16ff\JJ	.	.	.
4AA/	.	4AA/	.	16ff\LL	.	.	.
.	.	.	.	16cc\	.	.	.
.	.	.	.	16a\	.	.	.
.	.	.	.	16ff\JJ	.	.	.
4BB-/	.	4BB-/	.	4.dd\	.	16ff\LL	.
.	.	.	.	.	.	16dd\	.
.	.	.	.	.	.	16b-\	.
.	.	.	.	.	.	16ff\JJ	.
4D\	.	4D\	.	.	.	16ff\LL	.
.	.	.	.	.	.	16dd\	.
.	.	.	.	8ff\	.	16b-\	.
.	.	.	.	.	.	16ff\JJ	.
=6	=6	=6	=6	=6	=6	=6	=6
4E-\	.	4E-\	.	4.cc\	.	16gg\LL	.
.	.	.	.	.	.	16ee-\	.
.	.	.	.	.	.	16cc\	.
.	.	.	.	.	.	16gg\JJ	.
4F\	.	4F\	.	.	.	16aa\LL	.
.	.	.	.	.	.	16ff\	.
.	.	.	.	8ff\	.	16cc\	.
.	.	.	.	.	.	16aa\JJ	.
8BB-/L	.	8BB-/L	.	8dd\L	.	16bb-\LL	.
.	.	.	.	.	.	16ff\	.
8E-/	.	8E-/	.	(16cc\L	.	16ee-\	.
.	.	.	.	&(16b-\JJ&))	.	16dd\JJ	.
8F/	.	8F/	.	8.a/L	.	8.cc\L	.
8FF/J	.	8FF/J	.	.	.	.	.
.	.	.	.	16b-/Jk	.	16b-\Jk	.
=7	=7	=7	=7	=7	=7	=7	=7
4BB-/	.	4BB-/	.	4b-\	.	8b-\L	.
.	.	.	.	.	.	8ff\J	.
4r	.	4r	.	8r	.	[4bb-\	.
.	.	.	.	8b-\	.	.	.
2r	.	2r	.	[2ff\	.	8bb-\L]	.
.	.	.	.	.	.	8aa-\J	.
.	.	.	.	.	.	16aa-\LL	.
.	.	.	.	.	.	16gg\	.
.	.	.	.	.	.	16ff\	.
.	.	.	.	.	.	16aa-\JJ	.
=8	=8	=8	=8	=8	=8	=8	=8
1r	.	1r	.	8ff\L]	.	8gg\L	.
.	.	.	.	8ee-\J	.	8cc\J	.
.	.	.	.	16ee-\LL	.	[4ccc\	.
.	.	.	.	16dd\	.	.	.
.	.	.	.	16cc\	.	.	.
.	.	.	.	16ee-\JJ	.	.	.
.	.	.	.	8dd\L	.	8ccc\L]	.
.	.	.	.	8g\J	.	8bb-\J	.
.	.	.	.	[4gg\	.	16bb-\LL	.
.	.	.	.	.	.	16aa\	.
.	.	.	.	.	.	16gg\	.
.	.	.	.	.	.	16bb-\JJ	.
=9	=9	=9	=9	=9	=9	=9	=9
1r	.	1r	.	8gg\L]	.	8aa\L	.
.	.	.	.	8ff\J	.	8dd\J	.
.	.	.	.	16ff\LL	.	[4ddd\	.
.	.	.	.	16ee\	.	.	.
.	.	.	.	16dd\	.	.	.
.	.	.	.	16ff\JJ	.	.	.
.	.	.	.	8ee\L	.	8ddd\L]	.
.	.	.	.	8a\J	.	8ccc\J	.
.	.	.	.	[4aa\	.	16ccc\LL	.
.	.	.	.	.	.	16bb-\	.
.	.	.	.	.	.	16aa\	.
.	.	.	.	.	.	16ccc\JJ	.
=10	=10	=10	=10	=10	=10	=10	=10
16d\LL	.	16d\LL	.	8.aa\L]	.	[4bb-\	.
16c\	.	16c\	.	.	.	.	.
16B-\	.	16B-\	.	.	.	.	.
16d\JJ	.	16d\JJ	.	16ff\Jk	.	.	.
16e-\LL	.	16e-\LL	.	[4gg\	.	8.bb-\L]	.
16d\	.	16d\	.	.	.	.	.
16e-\	.	16e-\	.	.	.	.	.
16B-\JJ	.	16B-\JJ	.	.	.	16gg\Jk	.
16c\LL	.	16c\LL	.	8.gg\L]	.	[4aa\	.
16B-\	.	16B-\	.	.	.	.	.
16A\	.	16A\	.	.	.	.	.
16c\JJ	.	16c\JJ	.	16ee\Jk	.	.	.
16d\LL	.	16d\LL	.	[4ff\	.	8.aa\L]	.
16c\	.	16c\	.	.	.	.	.
16d\	.	16d\	.	.	.	.	.
16A\JJ	.	16A\JJ	.	.	.	16ff\Jk	.
=11	=11	=11	=11	=11	=11	=11	=11
16B-\LL	.	16B-\LL	.	8.ff\L]	.	[4gg\	.
16A\	.	16A\	.	.	.	.	.
16G\	.	16G\	.	.	.	.	.
16B-\JJ	.	16B-\JJ	.	16dd\Jk	.	.	.
16c\LL	.	16c\LL	.	[4ee\	.	8.gg\L]	.
16B-\	.	16B-\	.	.	.	.	.
16c\	.	16c\	.	.	.	.	.
16G\JJ	.	16G\JJ	.	.	.	16ee\Jk	.
16A\LL	.	16A\LL	.	8.ee\L]	.	4.ff\	.
16G\	.	16G\	.	.	.	.	.
16F\	.	16F\	.	.	.	.	.
16A\JJ	.	16A\JJ	.	16cc#\Jk	.	.	.
16B-\LL	.	16B-\LL	.	4dd\	.	.	.
16A\	.	16A\	.	.	.	.	.
16B-\	.	16B-\	.	.	.	8gg\	.
16A\JJ	.	16A\JJ	.	.	.	.	.
=12	=12	=12	=12	=12	=12	=12	=12
16G\LL	.	16G\LL	.	4gg\	.	(8ee-\L	.
16F\	.	16F\	.	.	.	.	.
16G\	.	16G\	.	.	.	8cc\J)	.
16A\JJ	.	16A\JJ	.	.	.	.	.
16B-\LL	.	16B-\LL	.	(8ff\L	.	2dd\	.
16A\	.	16A\	.	.	.	.	.
16G\	.	16G\	.	8ee\J)	.	.	.
16B-\JJ	.	16B-\JJ	.	.	.	.	.
16A\LL	.	16A\LL	.	4ff\	.	.	.
16G\	.	16G\	.	.	.	.	.
16F\	.	16F\	.	.	.	.	.
16G\JJ	.	16G\JJ	.	.	.	.	.
16A\LL	.	16A\LL	.	4ee\	.	4cc\	.
16G\	.	16G\	.	.	.	.	.
16A\	.	16A\	.	.	.	.	.
16AA\JJ	.	16AA\JJ	.	.	.	.	.
=13	=13	=13	=13	=13	=13	=13	=13
4D\	.	4D\	.	4dd\	.	16dd/LL	.
.	.	.	.	.	.	16a/	.
.	.	.	.	.	.	16f/	.
.	.	.	.	.	.	16d/JJ	.
4r	.	4r	.	16r	.	4dd\	.
.	.	.	.	16a/LL	.	.	.
.	.	.	.	16f/	.	.	.
.	.	.	.	16a/JJ	.	.	.
4D\	.	4D\	.	4d/	.	4r	.
8r	.	8r	.	8r	.	8r	.
=!|:	=!|:	=!|:	=!|:	=!|:	=!|:	=!|:	=!|:
8r	.	8r	.	8r	.	8a/	p
=14	=14	=14	=14	=14	=14	=14	=14
8r	.	8r	.	4r	.	8dd\L	.
8d\	p	8d\	pp	.	.	8a\	.
4c#\	.	4c#\	.	8r	.	8ee\	.
.	.	.	.	8a/	p	8a\J	.
8r	.	8r	.	8dd\L	.	4ff\	.
8d\	.	8d\	.	8a\	.	.	.
4c#\	.	4c#\	.	8ee\	.	8r	.
.	.	.	.	8a\J	.	8ee\	.
=15	=15	=15	=15	=15	=15	=15	=15
8r	.	8r	.	4ff\	.	8dd\L	.
8d\	.	8d\	.	.	.	8a\	.
4c#\	.	4c#\	.	8r	.	8ee\	.
.	.	.	.	8ee\	.	8a\J	.
8r	.	8r	.	8dd\L	.	4ff\	.
8d\	.	8d\	.	8a\	.	.	.
4c#\	.	4c#\	.	8ee\	.	8r	.
.	.	.	.	8a\J	.	8ee\	.
=16	=16	=16	=16	=16	=16	=16	=16
8d\L	.	8d\L	.	(8ff\L	.	4dd\	.
8D\J	.	8D\J	.	8dd\J)	.	.	.
4r	.	4r	.	[4aa\	.	8r	.
.	.	.	.	.	.	8dd\	.
8r	.	8r	.	16aa\LL]	.	[4bb-\	.
.	.	.	.	16dd\	.	.	.
8d\	.	8d\	.	16ff\	.	.	.
.	.	.	.	16dd\JJ	.	.	.
8e-\L	.	8e-\L	.	[4gg\	.	16bb-\LL]	.
.	.	.	.	.	.	16bb-\	.
8c\J	.	8c\J	.	.	.	16ccc\	.
.	.	.	.	.	.	16bb-\JJ	.
=17	=17	=17	=17	=17	=17	=17	=17
8d\L	.	8d\L	.	16gg\LL]	.	[4aa\	.
.	.	.	.	16cc\	.	.	.
8c\	.	8c\	.	16ee-\	.	.	.
.	.	.	.	16cc\JJ	.	.	.
8d\	.	8d\	.	[4ff\	.	16aa\LL]	.
.	.	.	.	.	.	16aa\	.
8B-\J	.	8B-\J	.	.	.	16bb-\	.
.	.	.	.	.	.	16aa\JJ	.
4c\	.	4c\	.	8ff\]	.	8.gg\L	.
.	.	.	.	4ee-\	.	.	.
.	.	.	.	.	.	16aa\Jk	.
8A\L	.	8A\L	.	.	.	8.ff\L	.
8B-\J	.	8B-\J	.	[8dd\	.	.	.
.	.	.	.	.	.	16gg\Jk	.
=18	=18	=18	=18	=18	=18	=18	=18
8G\L	.	8G\L	.	8dd\]	.	8.ee-\L	.
8A\	.	8A\	.	4cc\	.	.	.
.	.	.	.	.	.	16ff\Jk	.
8F\	.	8F\	.	.	.	8.dd\L	.
8G\J	.	8G\J	.	4b-\	.	.	.
.	.	.	.	.	.	16ee-\Jk	.
8E-\L	.	8E-\L	.	.	.	8.cc\L	.
8F\	.	8F\	.	4a/	.	.	.
.	.	.	.	.	.	16dd\Jk	.
8D\	.	8D\	.	.	.	8.b-\L	.
8E-\J	.	8E-\J	.	8g/	.	.	.
.	.	.	.	.	.	16cc\Jk	.
=19	=19	=19	=19	=19	=19	=19	=19
8E\L	.	8E\L	.	8f/	.	8a\L	.
(16D\L	.	(16D\L	.	4b-\	.	8ff\	.
16E\JJ)	.	16E-\JJ)	.	.	.	.	.
8F/L	.	8F/L	.	.	.	8cc\	.
8FF/J	.	8FF/J	.	8a/	.	8ff\J	.
4BB-/	.	4BB-/	.	4b-\	.	8dd\L	.
.	.	.	.	.	.	8ff\J	.
4r	.	4r	.	8r	.	[4bb-\	f
.	.	.	.	8b-\	f	.	.
=20	=20	=20	=20	=20	=20	=20	=20
1r	.	1r	.	[2ff\	.	8bb-\L]	.
.	.	.	.	.	.	8aa-\J	.
.	.	.	.	.	.	16aa-\LL	.
.	.	.	.	.	.	16gg\	.
.	.	.	.	.	.	16ff\	.
.	.	.	.	.	.	16aa-\JJ	.
.	.	.	.	8ff\L]	.	8gg\L	.
.	.	.	.	8ee-\J	.	8cc\J	.
.	.	.	.	16ee-\LL	.	[4ccc\	.
.	.	.	.	16dd\	.	.	.
.	.	.	.	16cc\	.	.	.
.	.	.	.	16ee-\JJ	.	.	.
=21	=21	=21	=21	=21	=21	=21	=21
1r	.	1r	.	8dd\L	.	8ccc\L]	.
.	.	.	.	8g\J	.	8bb-\J	.
.	.	.	.	[4gg\	.	16bb-\LL	.
.	.	.	.	.	.	16aa\	.
.	.	.	.	.	.	16gg\	.
.	.	.	.	.	.	16bb-\JJ	.
.	.	.	.	8gg\L]	.	8aa\L	.
.	.	.	.	8ff\J	.	8dd\J	.
.	.	.	.	16ff\LL	.	[4ddd\	.
.	.	.	.	16ee\	.	.	.
.	.	.	.	16dd\	.	.	.
.	.	.	.	16ff\JJ	.	.	.
=22	=22	=22	=22	=22	=22	=22	=22
2r	.	2r	.	8ee\L	.	8ddd\L]	.
.	.	.	.	8a\J	.	8ccc\J	.
.	.	.	.	[4aa\	.	16ccc\LL	.
.	.	.	.	.	.	16bb-\	.
.	.	.	.	.	.	16aa\	.
.	.	.	.	.	.	16ccc\JJ	.
16d\LL	.	16d\LL	f	8.aa\L]	.	[4bb-\	.
16c\	.	16c\	.	.	.	.	.
16B-\	.	16B-\	.	.	.	.	.
16d\JJ	.	16d\JJ	.	16ff#\Jk	.	.	.
16e-\LL	.	16e-\LL	.	[4gg\	.	8.bb-\L]	.
(16d\	.	16d\	.	.	.	.	.
16e-\)	.	16e-\	.	.	.	.	.
16B-\JJ	.	16B-\JJ	.	.	.	16gg\Jk	.
=23	=23	=23	=23	=23	=23	=23	=23
16c\LL	.	16c\LL	.	8.gg\L]	.	[4aa\	.
16B-\	.	16B-\	.	.	.	.	.
16A\	.	16A\	.	.	.	.	.
16c\JJ	p	16c\JJ	.	16ee\Jk	.	.	.
16d\LL	.	16d\LL	.	[4ffn\	.	8.aa\L]	.
16c\	.	16c\	.	.	.	.	.
16d\	.	16d\	.	.	.	.	.
16A\JJ	.	16A\JJ	.	.	.	16ff\Jk	.
16B-\LL	.	16B-\LL	.	8.ff\L]	.	[4gg\	.
16A\	.	16A\	.	.	.	.	.
16G\	.	16G\	.	.	.	.	.
16B-\JJ	.	16B-\JJ	.	16dd\Jk	.	.	.
16c\LL	.	16c\LL	.	8ee-\L	.	16gg\LL]	.
16B-\	.	16B-\	.	.	.	16bb-\	.
16c\	.	16c\	.	8cc\J	.	16aa\	.
16A\JJ	.	16A\JJ	.	.	.	16gg\JJ	.
=24	=24	=24	=24	=24	=24	=24	=24
8d\L	.	8d\L	.	4a/	.	(16ff\LL	.
.	.	.	.	.	.	16ee\J)	.
8c\	.	8c\	.	.	.	8dd\J	.
8B-\	.	8B-\	.	(8dd\L	.	8r	.
8G\J	.	8G\J	.	8b-\J)	.	8gg\	.
4c\	.	4c\	.	4.ee-\	.	(8aa-\L	.
.	.	.	.	.	.	8gg\)	.
4C/	.	4C/	.	.	.	(8aa-\	.
.	.	.	.	8ee-\	.	8gg\J)	.
=25	=25	=25	=25	=25	=25	=25	=25
4D\	.	4D\	.	4a/	.	(8ff\L	.
.	.	.	.	.	.	8aan\)	.
4C/	.	4C/	.	8r	.	(8dd\	.
.	.	.	.	8aa\	.	8ff\J)	.
8BB-\L	.	8BB-\L	.	4dd\	.	(8gg\L	.
8B-\	.	8B-\	.	.	.	8dd\)	.
8F#\	.	8F\	.	8r	.	(8aa\	.
8D\J	.	8D\J	.	8ff\	.	8dd\J)	.
=26	=26	=26	=26	=26	=26	=26	=26
8E-\L	.	8E-\L	.	8gg\L	.	(8ccc\L	.
(16D\L	.	(16D\L	.	8aa\	.	8ff#\J)	.
16C\JJ)	.	16C\JJ)	.	.	.	.	.
8BB-/L	.	8BB-/L	.	8dd\	.	2gg\	.
8C/J	.	8C/J	.	8cc\J	.	.	.
8D/L	.	8D/L	.	4b-\	.	.	.
8C/	.	8C/	.	.	.	.	.
8D/	.	8D/	.	4a/	.	4ff#\	.
8DD/J	.	8DD/J	.	.	.	.	.
=27	=27	=27	=27	=27	=27	=27	=27
8GG\L	.	8GG\L	.	4g/	.	4gg\	.
(16G\L	p	(16G\L	p	.	.	.	.
16A\JJ)	.	16A\JJ)	.	.	.	.	.
8B-\L	.	8B-\L	.	8dd\L	p	8r	.
8G\J	.	8G\J	.	8b-\J	.	8gg\	p
4c\	.	4c\	.	4.ee-\	.	(8aa-\L	.
.	.	.	.	.	.	8gg\)	.
4C/	.	4C/	.	.	.	(8aa-\	.
.	.	.	.	8ee-\	.	8gg\J)	.
=28	=28	=28	=28	=28	=28	=28	=28
4D\	.	4D\	.	4a/	.	(8ff#\L	.
.	.	.	.	.	.	8aan\)	.
4C/	.	4C/	.	8r	.	(8dd\	.
.	.	.	.	8aan\	.	8ff#\J)	.
4BB-/	.	4BB-/	.	8dd\	.	(8gg\L	.
.	.	.	.	4gg\	.	8dd\)	.
[4C/	.	[4C/	.	.	.	(8ee-\	.
.	.	.	.	8ee-\	.	8cc\J)	.
=29	=29	=29	=29	=29	=29	=29	=29
8C\L]	.	8C\L]	.	4cc\	.	(8a-/L	.
8D\	.	8D\	.	.	.	8f/J)	.
8E-\	.	8E-\	.	(8b-/L	.	2g/	.
8C\J	.	8C\J	.	8a/J)	.	.	.
8D/L	.	8D/L	.	4b-\	.	.	.
8C/	.	8C/	.	.	.	.	.
8D/	.	8D/	.	4a/	.	4f/	.
8DD/J	.	8DD/J	.	.	.	.	.
=30	=30	=30	=30	=30	=30	=30	=30
4GG/	f	4GG/	f	4g/	.	16g/LL	f
.	.	.	.	.	.	16d/	.
.	.	.	.	.	.	16B-/	.
.	.	.	.	.	.	16G/JJ	.
4r	.	4r	.	16r	.	4g/	.
.	.	.	.	16d/LL	f	.	.
.	.	.	.	16B-/	.	.	.
.	.	.	.	16d/JJ	.	.	.
4.GG/	.	4.GG/	.	4.G/	.	4r	.
.	.	.	.	.	.	8r	.
=	=	=	=	=	=	=	=
*-	*-	*-	*-	*-	*-	*-	*-
!!!ENC: Donald Anthony
!!!END: 2004/07//
!!!RWG: not proof-read
